ncols        15
nrows        9
xllcorner    -105.687499999845
yllcorner    39.895833333253
cellsize     0.041666666667
NODATA_value -9999
-9999.0 9.7259998321533203125 11.840999603271484375 16.434000015258789063 16.892999649047851563 18.4029998779296875 19.409000396728515625 20.201999664306640625 21.44499969482421875 22.061000823974609375 22.247999191284179688 22.79199981689453125 23.191999435424804688 23.253000259399414063 23.260000228881835938 
11.27700042724609375 13.522999763488769531 15.184000015258789063 16.87599945068359375 17.579000473022460938 18.330999374389648438 19.7220001220703125 20.636999130249023438 21.481000900268554688 22.059999465942382813 22.51399993896484375 22.9850006103515625 23.156999588012695313 23.115999221801757813 23.113000869750976563 
10.904000282287597656 12.553000450134277344 12.815999984741210938 14.890999794006347656 16.048999786376953125 18.009000778198242188 19.305999755859375 20.204000473022460938 20.962999343872070313 22.43000030517578125 23.086000442504882813 23.156000137329101563 23.423000335693359375 23.371000289916992188 23.38800048828125 
13.675000190734863281 12.199000358581542969 13.687000274658203125 15.270000457763671875 15.921999931335449219 17.218000411987304688 18.51300048828125 19.743000030517578125 21.08300018310546875 22.913000106811523438 23.427999496459960938 23.349000930786132813 23.351999282836914063 23.426000595092773438 23.3899993896484375 
-9999 11.307000160217285156 12.45800018310546875 13.81999969482421875 16.558000564575195313 17.511999130249023438 18.243000030517578125 20.33499908447265625 21.938999176025390625 22.738000869750976563 23.288999557495117188 23.3470001220703125 23.386999130249023438 23.378000259399414063 23.326999664306640625 
-9999 11.265000343322753906 12.385000228881835938 14.123000144958496094 16.9290008544921875 17.965000152587890625 19.275999069213867188 21.038999557495117188 21.493999481201171875 22.510999679565429688 23.216999053955078125 23.198999404907226563 23.188999176025390625 23.298000335693359375 23.614000320434570313 
11.993000030517578125 12.045000076293945313 13.305999755859375 15.501999855041503906 16.850000381469726563 18.308000564575195313 19.434000015258789063 20.864000320434570313 21.100999832153320313 22.211000442504882813 23.31999969482421875 22.975000381469726563 23.370000839233398438 23.43000030517578125 23.451999664306640625 
12.223999977111816406 14.302000045776367188 15.175999641418457031 16.072000503540039063 16.534999847412109375 17.864999771118164063 18.86199951171875 19.343999862670898438 20.006000518798828125 20.225000381469726563 22.989999771118164063 23.364999771118164063 23.552999496459960938 23.58499908447265625 23.753000259399414063 
12.503000259399414063 14.295000076293945313 16.155000686645507813 16.382999420166015625 16.559000015258789063 -9999 18.325000762939453125 18.802999496459960938 18.853000640869140625 20.065999984741210938 22.563999176025390625 23.323999404907226563 23.676000595092773438 23.968000411987304688 -9999 
